assets/svgs/illustration-databases.svg

<svg width="200" height="160" viewBox="0 0 200 160" fill="none" xmlns="http://www.w3.org/2000/svg" class="svg__illustration-databases">
<path d="M49.7119 108.564V51.268C49.712 51.2666 49.7121 51.2646 49.7122 51.2622C49.7129 51.2501 49.7147 51.2254 49.7191 51.1889C49.7278 51.1159 49.7468 50.9955 49.7881 50.8342C49.8705 50.5125 50.0427 50.0238 50.4032 49.4206C51.1222 48.2177 52.6118 46.5248 55.707 44.7985C61.9202 41.3334 74.5263 37.7773 100 37.7773C125.475 37.7773 138.081 41.3334 144.294 44.7985C147.389 46.5248 148.879 48.2177 149.598 49.4206C149.958 50.0238 150.13 50.5125 150.213 50.8342C150.254 50.9955 150.273 51.1159 150.282 51.1889C150.286 51.2254 150.288 51.2501 150.289 51.2622C150.289 51.2647 150.289 51.2667 150.289 51.2681V108.564C150.288 108.567 150.287 108.569 150.286 108.572C150.252 108.654 150.193 108.784 150.101 108.956C149.915 109.301 149.593 109.815 149.059 110.443C147.992 111.699 146.07 113.425 142.686 115.169C135.909 118.663 123.283 122.223 100 122.223C76.7183 122.223 64.0914 118.663 57.3146 115.169C53.9307 113.425 52.0088 111.699 50.9419 110.443C50.4079 109.815 50.0855 109.301 49.9003 108.956C49.8076 108.784 49.7489 108.654 49.7152 108.572C49.7141 108.569 49.713 108.567 49.7119 108.564Z" fill="white" stroke="#0B6AB7" stroke-width="1.5" class="svg__stroke--primary-blue-03 svg__fill--white"/>
<path d="M90.3503 88.814L92.7539 89.8096L93.7495 92.2131L92.7539 94.6167L90.3503 95.6123L87.9468 94.6167L86.9512 92.2131L87.9468 89.8096L90.3503 88.814Z" fill="#0AA5FF" class="svg__fill--default-cyan-03"/>
<path d="M99.9985 88.814L103.003 90.0585L104.247 93.0629L103.003 96.0674L99.9985 97.3119L96.994 96.0674L95.7495 93.0629L96.994 90.0585L99.9985 88.814Z" fill="#0AA5FF" class="svg__fill--default-cyan-03"/>
<path d="M109.647 88.814L112.05 89.8096L113.046 92.2131L112.05 94.6167L109.647 95.6123L107.243 94.6167L106.248 92.2131L107.243 89.8096L109.647 88.814Z" fill="#0AA5FF" class="svg__fill--default-cyan-03"/>
<path d="M150.316 52.954C146.219 59.6727 125.252 64.788 100.003 64.788C74.7376 64.788 53.7602 59.6663 49.6816 52.9414" stroke="#0B6AB7" stroke-width="1.5" stroke-linecap="round" stroke-linejoin="round" class="svg__stroke--primary-blue-03"/>
<path d="M150.316 70.705C146.219 77.4237 125.252 82.539 100.003 82.539C74.7376 82.539 53.7602 77.4173 49.6816 70.6924" stroke="#00E0E0" stroke-width="1.5" stroke-linecap="round" stroke-linejoin="round" class="svg__stroke--help-green-03"/>
<path d="M150.316 91.2265C146.219 97.9452 125.252 103.06 100.003 103.06C74.7376 103.06 53.7602 97.9388 49.6816 91.2139" stroke="#00E0E0" stroke-width="1.5" stroke-linecap="round" stroke-linejoin="round" class="svg__stroke--help-green-03"/>
<path d="M49.7119 108.564V51.268C49.712 51.2666 49.7121 51.2646 49.7122 51.2622C49.7129 51.2501 49.7147 51.2254 49.7191 51.1889C49.7278 51.1159 49.7468 50.9955 49.7881 50.8342C49.8705 50.5125 50.0427 50.0238 50.4032 49.4206C51.1222 48.2177 52.6118 46.5248 55.707 44.7985C61.9202 41.3334 74.5263 37.7773 100 37.7773C125.475 37.7773 138.081 41.3334 144.294 44.7985C147.389 46.5248 148.879 48.2177 149.598 49.4206C149.958 50.0238 150.13 50.5125 150.213 50.8342C150.254 50.9955 150.273 51.1159 150.282 51.1889C150.286 51.2254 150.288 51.2501 150.289 51.2622C150.289 51.2647 150.289 51.2667 150.289 51.2681V108.564C150.288 108.567 150.287 108.569 150.286 108.572C150.252 108.654 150.193 108.784 150.101 108.956C149.915 109.301 149.593 109.815 149.059 110.443C147.992 111.699 146.07 113.425 142.686 115.169C135.909 118.663 123.283 122.223 100 122.223C76.7183 122.223 64.0914 118.663 57.3146 115.169C53.9307 113.425 52.0088 111.699 50.9419 110.443C50.4079 109.815 50.0855 109.301 49.9003 108.956C49.8076 108.784 49.7489 108.654 49.7152 108.572C49.7141 108.569 49.713 108.567 49.7119 108.564Z" stroke="#0B6AB7" stroke-width="1.5" class="svg__stroke--primary-blue-03"/>
<path d="M99.9995 5V17.9494" stroke="#FFD600" stroke-width="1.5" class="svg__stroke--secondary-yellow-03"/>
<path d="M99.9995 5V17.9494" stroke="#FFD600" stroke-width="1.5" class="svg__stroke--secondary-yellow-03"/>
<path d="M175.001 79.9993L162.052 79.9993" stroke="#FFD600" stroke-width="1.5" class="svg__stroke--secondary-yellow-03"/>
<path d="M153.033 133.033L143.876 123.877" stroke="#FFD600" stroke-width="1.5" class="svg__stroke--secondary-yellow-03"/>
<path d="M153.032 26.9692L143.875 36.1258" stroke="#FFD600" stroke-width="1.5" class="svg__stroke--secondary-yellow-03"/>
<path d="M99.9995 142.05V155" stroke="#FFD600" stroke-width="1.5" class="svg__stroke--secondary-yellow-03"/>
<path d="M37.9482 79.9993L24.9989 79.9993" stroke="#FFD600" stroke-width="1.5" class="svg__stroke--secondary-yellow-03"/>
<path d="M56.1211 36.1233L46.9645 26.9667" stroke="#FFD600" stroke-width="1.5" class="svg__stroke--secondary-yellow-03"/>
<path d="M56.1216 123.877L46.965 133.033" stroke="#FFD600" stroke-width="1.5" class="svg__stroke--secondary-yellow-03"/>
</svg>

<svg width="200" height="160" viewBox="0 0 200 160" fill="none" xmlns="http://www.w3.org/2000/svg" class="svg__illustration-databases">
  <path d="M49.712 108.564V51.262a2.794 2.794 0 0 1 .076-.428c.082-.322.254-.81.615-1.413.719-1.203 2.209-2.896 5.304-4.623 6.213-3.465 18.82-7.02 44.293-7.02 25.474 0 38.08 3.555 44.294 7.02 3.095 1.727 4.584 3.42 5.303 4.623.361.603.533 1.092.615 1.413a2.749 2.749 0 0 1 .077.434v57.296a8.627 8.627 0 0 1-1.23 1.879c-1.067 1.256-2.989 2.982-6.373 4.726-6.777 3.494-19.404 7.054-42.686 7.054s-35.909-3.56-42.686-7.054c-3.383-1.744-5.305-3.47-6.372-4.726a8.658 8.658 0 0 1-1.042-1.487 4.15 4.15 0 0 1-.185-.384l-.003-.008Z" fill="#fff" stroke="#0B6AB7" stroke-width="1.5" class="svg__stroke--primary-blue-03 svg__fill--white"/>
  <path d="m90.35 88.814 2.404.996.995 2.403-.995 2.404-2.404.995-2.403-.995-.996-2.404.996-2.403 2.403-.996ZM99.998 88.814l3.005 1.245 1.244 3.004-1.244 3.004-3.005 1.245-3.004-1.245-1.245-3.004 1.245-3.005 3.004-1.244ZM109.646 88.814l2.404.996.996 2.403-.996 2.404-2.404.995-2.403-.995-.996-2.404.996-2.403 2.403-.996Z" fill="#0AA5FF" class="svg__fill--default-cyan-03"/>
  <path d="M150.316 52.954c-4.097 6.719-25.064 11.834-50.314 11.834-25.265 0-46.242-5.122-50.32-11.846" stroke="#0B6AB7" stroke-width="1.5" stroke-linecap="round" stroke-linejoin="round" class="svg__stroke--primary-blue-03"/>
  <path d="M150.316 70.705c-4.097 6.719-25.064 11.834-50.313 11.834-25.266 0-46.243-5.122-50.322-11.847M150.316 91.226c-4.097 6.719-25.064 11.834-50.313 11.834-25.266 0-46.243-5.121-50.322-11.846" stroke="#00E0E0" stroke-width="1.5" stroke-linecap="round" stroke-linejoin="round" class="svg__stroke--help-green-03"/>
  <path d="M49.712 108.564V51.262a2.794 2.794 0 0 1 .076-.428c.082-.322.254-.81.615-1.413.719-1.203 2.209-2.896 5.304-4.623 6.213-3.465 18.82-7.02 44.293-7.02 25.474 0 38.08 3.555 44.294 7.02 3.095 1.727 4.584 3.42 5.303 4.623.361.603.533 1.092.615 1.413a2.749 2.749 0 0 1 .077.434v57.296a8.627 8.627 0 0 1-1.23 1.879c-1.067 1.256-2.989 2.982-6.373 4.726-6.777 3.494-19.404 7.054-42.686 7.054s-35.909-3.56-42.686-7.054c-3.383-1.744-5.305-3.47-6.372-4.726a8.658 8.658 0 0 1-1.042-1.487 4.15 4.15 0 0 1-.185-.384l-.003-.008Z" stroke="#0B6AB7" stroke-width="1.5" class="svg__stroke--primary-blue-03"/>
  <path d="M100 5v12.95M100 5v12.95M175.001 80h-12.949M153.033 133.033l-9.157-9.156M153.032 26.97l-9.157 9.156M100 142.05V155M37.948 80H25M56.12 36.123l-9.156-9.156M56.121 123.877l-9.156 9.156" stroke="#FFD600" stroke-width="1.5" class="svg__stroke--secondary-yellow-03"/>
</svg>
